X: 7648
T:Polska  L\aa{}ngdans 
R:Longdans
R:Polska
O:Sweden
M:3/4
A:J\"amtland
K:A
A2|Ace2B2|Bde2g2|a2fd fa|g2e2A2|\
Ace2B2|Bde2g2|a2fd (3cBc|BcA2:|
|:e2|\
edc2cA|dcB2g2|a2fd fa|g2e2e2|\
edc2cA|dcB2g2|a2fd (3cBc|BcA2:|
